X:203
T:Christ Returneth
%%stretchlast false
M:none
L:1/4
K:Ab clef=C1
"^iii+"[A,,C,A,] "^I"[A,,E,A,C] "^♯iii"[A,,D,A,B,] "^iii+"[A,,C,A,] | "^I"[A,,C,A,E]2 "^IV²"[A,,D,A,F]3/4 "^I"[A,,C,A,E]/4 [A,,E,A,C] | "^♯iii"[A,,D,A,B,] "^iii+"[A,,C,A,] "^I²"[E,,E,A,C] "^V"[E,,E,G,B,] | [E,,G,] "^v¹"[A,,E,A,B,] "^I"[A,,E,A,C] "^iii7²"[G,,E,B,C] | [F,,E,CE] "^vi"[F,,F,CA]/ "^vi+"[G,,F,DA]/ "^vi¹"[A,,F,CA]/ "^I"[A,,E,CB]/ "^v"[B,,E,B,A] | "^Vmaj7²"[B,,E,=DG] "^ii7"[B,,F,DA] "^v"[E,,A,EF] [E,,A,EF] | "^V"[E,,G,E] "^♯iii¹"[E,D] "^♯iii°"[D,G,CE] "^♯iii"[B,,A,DE] | "^IV²"[A,,A,DF] "^Imaj7"[A,,E,CG] [B,,E,CA]3/4 "^I"[A,,E,CA]/4 [E,,E,B,A]3/4 "^I²"[E,,E,CA]/4 | "^♯iii°"[E,,E,DG]/ [E,,E,DG]/4 "^♯iii¹"[E,,E,DA]/4 "^V7"[E,,G,DB]/ "^iii7¹"[E,,G,CB]/ "^♯iii"[A,,G,DB]/ [A,,A,DA]/ "^v¹"[A,,G,EB] | "^iii+"[C,A,Cc]3/4 [C,A,Cc]/4 "^♯iii"[D,A,EA]3/4 [D,A,EA]/4 "^IV"[D,A,FA]/ [D,A,FA]/4 [D,A,FA]/4 [D,A,FA]/ "^♯iii"[D,A,EA]/ | "^♯iii¹"[E,A,DA]/ "^♯iii"[E,A,DG]/ "^vi7³"[E,A,CF] "^I²"[E,,A,CE] "^♯iii"[A,,E,DA] | "^Imaj7"[A,,E,CG] "^I"[A,,E,CA] [A,,E,CA] [A,,E,CA] | [A,,A,CE] "^v¹"[A,,A,E] "^iii+"[B,,E,A,C] "^iii"[C,E,G,C] | "^♯iii"[D,E,A,D] [D,E,A,E] "^IV"[D,A,F] [D,A,F] | [D,A,DF] [D,F,DA]3/4 [D,F,DA]/4 [D,F,DA]3/4 [D,F,DA]/4 [D,F,FA]3/4 [D,F,FA]/4 | [D,F,EA] "^♯iii"[A,,G,DG] "^vi¹"[A,,A,CF] "^I²"[E,A,CE]3/4 [E,A,CE]/4 | [A,,A,B,E]3/4 "^v¹"[A,,A,B,E]/4 "^Imaj7"[A,,E,CG]3/4 [A,,E,CG]/4 "^I²"[E,,E,CA]3/4 [E,,E,CA]/4 "^♯iii"[A,,E,DA]3/4 [A,,E,DA]/4 | "^Imaj7"[A,,E,CG]3/4 [A,,E,CG]/4 "^I²"[E,CA]3/4 [E,CA]/4 "^v¹"[A,,E,EA]3/4 [A,,E,EA]/4 [A,,G,EB]3/4 [A,,G,EB]/4 | "^I²"[E,,A,Cc] "^♯iii"[A,,E,DA] "^Imaj7"[A,,E,CG] "^I"[A,,E,CA]3/4 [A,,E,CA]/4 | "^v"[E,,E,A,A]3/4 [E,,E,A,A]/4 "^I²"[E,,E,A,C]3/4 [E,,E,A,C]/4 [E,,C,B,E] "^♯iii"[A,,E,G,D] | [A,,D,A,B,] "^iii+"[C,A,]2 |]
